X:59
T:Cronin's #1
R:reel
D:Slide: Harmonic motion
M:C|
K:D
DFAd ~f3e|dcde fdAF|~G2FG ~E3F|~G2EF GFEG|
FEDE FGAd|BAGA Bcde|
~f3a gecd|1 ~e2dc dBAF:|2 ~e2dc d2ag||
~f3e dfaf|gfed cdeg|~f3a gfed|cdBc ~A3G|
FEDE FGAd|BAGA Bcde|
~f3a gecd|1 ~e2dc d2ag:|2 ~e2dc dBAF||
